!!!OTL: WENN ALL DIE BAECHLEIN FLIESSEN
!!!ARE: Europa, Mitteleuropa, Deutschland, Hessen, Darmstadt, Brauerschwend
!!!SCT: E0429C
!!!YEM: Copyright 1995, estate of Helmut Schaffrath.
**kern
*ICvox
*Ivox
*M4/4
*k[f#]
*G:
{4d
=1
4d
4g
4g
4b
=2
4dd
4b
4a}
{4ee
=3
8dd
8cc
4b
2a
=4
2g
4r}
{4g
=5
4g
4b
4dd
8dd
8ee
=6
4dd
8cc
8b
2cc}
=7
{2b
4dd
8cc
8b
=8
4dd
4a
4a}
{4ee
=9
8dd
8cc
4b
2a
=10
2g
4r}
==
!!!AGN: Liebes - Lied
!!!ONB: ESAC (Essen Associative Code) Database: ERK1
!!!AMT: simple quadruple
!!!AIN: vox
!!!EED: Helmut Schaffrath
!!!EEV: 1.0
*-
